source/svgs/bowtie/uEA44-work-item-move.svg

<svg xmlns="http://www.w3.org/2000/svg" viewBox="0 0 448 448" enable-background="new 0 0 448 448"><path d="M32 96h32v64h192v-64h64v-32h-96c0-35.29-28.71-64-64-64s-64 28.71-64 64h-96v384h320v-32h-288v-320zm96 0v-32c0-17.645 14.355-32 32-32s32 14.355 32 32v32h32v32h-128v-32h32zm310.627 176l-107.314 107.313-22.627-22.627 68.687-68.686h-217.373v-32h217.373l-68.687-68.687 22.627-22.627 107.314 107.314z"/></svg>

<svg xmlns="http://www.w3.org/2000/svg" viewBox="0 0 448 448"><path d="M32 96h32v64h192V96h64V64h-96c0-35.29-28.71-64-64-64S96 28.71 96 64H0v384h320v-32H32V96zm96 0V64c0-17.645 14.355-32 32-32s32 14.355 32 32v32h32v32H96V96h32zm310.627 176L331.313 379.313l-22.627-22.627L377.373 288H160v-32h217.373l-68.687-68.687 22.627-22.627L438.627 272z"/></svg>
